X:246
T: DANN WANN DIE HAEHNE KRAEHEN
N: Z0245
O: Europa, Mitteleuropa, Deutschland, Herzogtum Berg
R: Romanze
M: 2/4
L: 1/8
K: E
E | EF=GA | B2B
B | =cB^AA | B2z
B | A=GFE | D2B
A | =GFED | E2z

@@@ Tune index: 10004
